X:1
T:Polka
T:Pascual Roch (1864 - 1921)
T:"A Modern Method for the Guitar" Vol.I, p.141
%%score { ( 1 2 ) ( 3 4 ) }
L:1/8
Q:1/4=72
M:2/4
K:A
V:1 treble-8 nm="Guitare classique"
V:2 treble-8 
V:3 tab stafflines=6 strings=E2,A2,D3,G3,B3,E4 nostems nm="Guitare classique [Tablature]"
V:4 tab stafflines=6 strings=E2,A2,D3,G3,B3,E4 nostems 
V:1
 !2!a/!4!f/!1!g/!2!e/ | !4!f[Acf]/!1!e/ !4!f[Acf]/e/ | !4!f[Ac] a/f/g/e/ | f[Acf]/e/ f[Acf]/!1!a/ | %4
 !3!g[Bd] !4!d'/!1!b/!3!c'/!4!a/ |"^₵7" b[dgb]/b/"^C7" !4!a[Bda]/f/ | !4!g[Bd] !0!B/!2!c/!3!d/e/ | %7
 !2!f/!1!^e/!1!f/!4!a/ !3!g[Bdf] | !4!f[Ace] a/f/g/e/ | f[Acf]/e/ f[Acf]/e/ | f[Ac] c/e/a/!1!c'/ | %11
 !4!e'2 !1!g/!4!b/!2!a/!1!g/ | !4!f!0!!3![Bd] d'/b/c'/a/ |"^₵7" b[dgb]/b/"^C7" a[Bda]/f/ | %14
 g[Bd] B/!2!c/!3!d/e/ | !2!f/e/!4!^d/e/ !1!^e/!1!f/!2!^^f/!3!g/ |"^₵2" !4!a2 [Aca]2 || %17
[K:D] f/^e/f/g/ f=e |"^C2" !4!e[Fd] [FA] z | !4!b/!2!a/!2!g/!1!f/ !4!a/!2!g/!1!f/!2!g/ | %20
 !0!e[EG] [EG] z | !3!c'/!1!b/c'/!4!d'/ c'[egb] | b[eg] [ce] z | %23
 A,/!3!e/!2!g/!4!c'/ !4!e'/!2!d'/!1!c'/!4!b/ | !4!b[df] !1![dfa] z | f/^e/f/g/ f=e | %26
"^C2" e[Fd] [FA] z | !4!b/!2!a/!1!^g/!2!a/ !2!d'/!1!c'/!4!e'/!2!d'/ | !1!c'[gb] [gb] z | %29
 !4!a/!2!g/!1!f/g/ g[ce] | e[Gc] [EG] z | B/!2!A/!1!^G/!1!A/ [=GB]/!1!A/B/!1!c/ | [Fd]2 z2 |] %33
V:2
 x2 | A,2 E,2 | A,2 x2 | A,2 A,2 | E,2 x2 | E,2 B,2 | E,2 x2 | E,2 E,2 | A,2 x2 | A,2 E,2 | %10
 A,2 x2 | E,2 x2 | !0!D2 x2 | E,2 B,2 | E,2 x2 | A,2 x2 | A,2 x2 ||[K:D] D2 A,2 | F,2 x2 | D2 A,2 | %20
 !3!C2 x2 | A,2 A,2 | E,2 x2 | A,2 A,2 | D2 x2 | D2 A,2 | F,2 x2 | A,2 A,2 | !0!G2 x2 | A,2 A,2 | %30
 !4!C2 x2 | A,2 !3!C2 | D2 x2 |] %33
V:3
 !1!A/ !2!F/ !1!G/ !2!E/ | !2!F [!4!A,!3!C!2!F]/ !2!E/ !2!F [!4!A,!3!C!2!F]/ !2!E/ | %2
 !2!F [!4!A,!3!C] !1!A/ !2!F/ !1!G/ !2!E/ | %3
 !2!F [!4!A,!3!C!2!F]/ !2!E/ !2!F [!4!A,!3!C!2!F]/ !1!A/ | %4
 !1!G [!3!B,!2!D] !1!d/ !1!B/ !1!c/ !2!A/ | %5
 !1!B [!3!D!2!G!1!B]/ !1!B/ !2!A [!4!B,!3!D!2!A]/ !2!F/ | %6
 !2!G [!4!B,!3!D] !2!B,/ !2!C/ !2!D/ !1!E/ | !1!F/ !1!^E/ !1!F/ !1!A/ !1!G [!3!B,!2!D!1!F] | %8
 !2!F [!4!A,!3!C!2!E] !1!A/ !2!F/ !1!G/ !2!E/ | %9
 !2!F [!4!A,!3!C!2!F]/ !2!E/ !2!F [!4!A,!3!C!2!F]/ !2!E/ | %10
 !2!F [!4!A,!3!C] !4!C/ !3!E/ !2!A/ !1!c/ | !1!e2 !2!G/ !2!B/ !2!A/ !2!G/ | %12
 !2!F [!2!B,!3!D] !1!d/ !1!B/ !1!c/ !2!A/ | %13
 !1!B [!3!D!2!G!1!B]/ !1!B/ !2!A [!4!B,!3!D!2!A]/ !2!F/ | %14
 !2!G [!4!B,!3!D] !2!B,/ !2!C/ !2!D/ !1!E/ | !1!F/ !1!E/ !2!^D/ !1!E/ !1!^E/ !1!F/ !1!^^F/ !1!G/ | %16
 !1!A2 [!3!A,!2!C!1!A]2 ||[K:D] !1!F/ !1!^E/ !1!F/ !1!G/ !1!F !1!=E | %18
 !2!E [!4!F,!2!D] [!4!F,!3!A,] x | !1!B/ !1!A/ !1!G/ !1!F/ !1!A/ !1!G/ !1!F/ !1!G/ | %20
 !1!E [!4!E,!3!G,] [!4!E,!3!G,] x | !1!c/ !1!B/ !1!c/ !1!d/ !1!c [!3!E!2!G!1!B] | %22
 !1!B [!3!E!2!G] [!3!C!2!E] x | !5!A,,/ !3!E/ !2!G/ !1!c/ !1!e/ !1!d/ !1!c/ !2!B/ | %24
 !2!B [!3!D!2!F] [!3!D!2!F!1!A] x | !1!F/ !1!^E/ !1!F/ !1!G/ !1!F !1!=E | %26
 !2!E [!4!F,!2!D] [!4!F,!3!A,] x | !1!B/ !1!A/ !1!^G/ !1!A/ !1!d/ !1!c/ !1!e/ !1!d/ | %28
 !1!c [!2!G!1!B] [!2!G!1!B] x | !1!A/ !1!G/ !1!F/ !1!G/ !1!G [!2!C!1!E] | %30
 !1!E [!3!G,!2!C] [!4!E,!3!G,] x | %31
 !2!B,/ !3!A,/ !3!^G,/ !3!A,/ [!3!=G,!2!B,]/ !3!A,/ !2!B,/ !2!C/ | [!4!F,!2!D]2 x2 |] %33
V:4
 x2 | !5!A,,2 !6!E,,2 | !5!A,,2 x2 | !5!A,,2 !6!E,,2 | !6!E,,2 x2 | !6!E,,2 !6!B,,2 | !6!E,,2 x2 | %7
 !6!E,,2 !6!E,,2 | !5!A,,2 x2 | !5!A,,2 !6!E,,2 | !5!A,,2 x2 | !6!E,,2 x2 | !4!D,2 x2 | %13
 !6!E,,2 !6!B,,2 | !6!E,,2 x2 | !5!A,,2 x2 | !5!A,,2 x2 ||[K:D] !4!D,2 !5!A,,2 | !6!F,,2 x2 | %19
 !4!D,2 !5!A,,2 | !5!C,2 x2 | !5!A,,2 !5!A,,2 | !6!E,,2 x2 | x2 !5!A,,2 | !4!D,2 x2 | %25
 !4!D,2 !5!A,,2 | !6!F,,2 x2 | !5!A,,2 !5!A,,2 | !3!G,2 x2 | !5!A,,2 !5!A,,2 | !5!C,2 x2 | %31
 !5!A,,2 !5!C,2 | !5!D,2 x2 |] %33

